assets/images/lady-Q3and4.svg

<svg xmlns="http://www.w3.org/2000/svg" width="155.83" height="478.51" viewBox="0 0 155.83 478.51"><polygon points="74.07 24.16 66.33 44.48 74.07 53.55 89.56 62.86 91.7 53.55 91.7 30.93 91.7 19.32 82.78 15.45 74.07 24.16" fill="#f0ebd6"/><path d="m57.49 4.73S47.81 22.15 46.85 26S42 54.08 39.11 57s-13.55 6.76-10.65 12.56s11.13 22.26 14.27 25.16s13.8 3.87 19.6 0s28.06-15.48 28.06-15.48l5.81-9.68s4.8-9.67 0-11.56s-8.71-11.61-8.71-11.61l1.94-13.55l2.9-13.54l-4.84-14.57s-17.42-10.64-30 0" fill="#1c1c1c"/><polygon points="85.66 116.01 98.35 105.37 123.3 138.78 130.07 157.14 109.65 172.2 85.66 116.01" fill="#f0ebd6"/><path d="m13.45 399.23l-8.21 56.42s14.26 3 16.27 0s14.31-56.42 14.31-56.42z" fill="#f0ebd6"/><polygon points="92.17 389.15 107.86 456.99 125.28 456.99 119.24 375.05 92.17 389.15" fill="#f0ebd6"/><polygon points="20.09 453.2 19.87 455.27 15.94 457.63 9.11 456.61 6.7 452.58 3.69 451.83 0 467.19 2.73 471.75 32.79 478.44 42.8 478.51 48.9 476.08 49.47 472.57 39.84 467.88 30.93 461.54 26.32 451.41 20.09 453.2" fill="#1c1c1c"/><polygon points="120.3 450.82 120.92 452.82 118.25 456.54 111.58 458.32 107.77 455.58 104.71 456.08 107.41 471.64 111.74 474.74 141.97 468.95 151.2 465.05 155.83 460.4 154.96 456.95 144.26 456.46 133.57 454.18 125.31 446.71 120.3 450.82" fill="#1c1c1c"/><path d="m5.24 415h40.64l14.38-82.25s2.9-65.8 5.8-67.74s-14.37-55.15-14.37-55.15H29.11z" fill="#c7c7c4"/><polygon points="74.27 406.31 109.16 401.47 127.49 385.99 131.36 370.51 74.27 199.23 52.98 209.88 74.27 406.31" fill="#c7c7c4"/><path d="m49.75 85.05L35.24 107.3s-3.87 37.74 0 44.52s-1.35 25.16 0 30s-6.13 28.07-6.13 28.07L28 229.23h57.7V175l17.3-1.9s8.71-1 11.61-1.93s15.49-14 15.49-14l-31.75-43.09L85.66 71.5z" fill="#77c5d5"/><path d="m99.6 95.83s-9.21-10.77-16.43 0s-21.55 62.42-21.55 62.42" fill="none" stroke="#f1567b" stroke-miterlimit="10" stroke-width="1.98"/><polygon points="55.77 141.59 104.74 172.42 93.38 231.5 22.48 199.92 55.77 141.59" fill="#f1567b"/><polygon points="55.77 141.59 104.74 172.42 93.38 231.5 22.48 199.92 55.77 141.59" fill="none" stroke="#f1567b" stroke-miterlimit="10" stroke-width="1.98"/></svg>

<svg xmlns="http://www.w3.org/2000/svg" width="155.83" height="478.51" viewBox="0 0 155.83 478.51"><polygon points="74.07 24.16 66.33 44.48 74.07 53.55 89.56 62.86 91.7 53.55 91.7 30.93 91.7 19.32 82.78 15.45 74.07 24.16" fill="#f0ebd6"/><path d="M57.49,4.73S47.81,22.15,46.85,26,42,54.08,39.11,57,25.56,63.76,28.46,69.56,39.59,91.82,42.73,94.72s13.8,3.87,19.6,0S90.39,79.24,90.39,79.24l5.81-9.68S101,59.89,96.2,58s-8.71-11.61-8.71-11.61l1.94-13.55,2.9-13.54L87.49,4.73s-17.42-10.64-30,0" fill="#1c1c1c"/><polygon points="85.66 116.01 98.35 105.37 123.3 138.78 130.07 157.14 109.65 172.2 85.66 116.01" fill="#f0ebd6"/><path d="M13.45,399.23,5.24,455.65s14.26,3,16.27,0,14.31-56.42,14.31-56.42Z" fill="#f0ebd6"/><polygon points="92.17 389.15 107.86 456.99 125.28 456.99 119.24 375.05 92.17 389.15" fill="#f0ebd6"/><polygon points="20.09 453.2 19.87 455.27 15.94 457.63 9.11 456.61 6.7 452.58 3.69 451.83 0 467.19 2.73 471.75 32.79 478.44 42.8 478.51 48.9 476.08 49.47 472.57 39.84 467.88 30.93 461.54 26.32 451.41 20.09 453.2" fill="#1c1c1c"/><polygon points="120.3 450.82 120.92 452.82 118.25 456.54 111.58 458.32 107.77 455.58 104.71 456.08 107.41 471.64 111.74 474.74 141.97 468.95 151.2 465.05 155.83 460.4 154.96 456.95 144.26 456.46 133.57 454.18 125.31 446.71 120.3 450.82" fill="#1c1c1c"/><path d="M5.24,415H45.88l14.38-82.25s2.9-65.8,5.8-67.74-14.37-55.15-14.37-55.15H29.11Z" fill="#c7c7c4"/><polygon points="74.27 406.31 109.16 401.47 127.49 385.99 131.36 370.51 74.27 199.23 52.98 209.88 74.27 406.31" fill="#c7c7c4"/><path d="M49.75,85.05,35.24,107.3s-3.87,37.74,0,44.52-1.35,25.16,0,30-6.13,28.07-6.13,28.07L28,229.23h57.7V175L103,173.1s8.71-1,11.61-1.93,15.49-14,15.49-14L98.35,114.08,85.66,71.5Z" fill="#77c5d5"/><path d="M99.6,95.83s-9.21-10.77-16.43,0-21.55,62.42-21.55,62.42" fill="none" stroke="#f1567b" stroke-miterlimit="10" stroke-width="1.98"/><polygon points="55.77 141.59 104.74 172.42 93.38 231.5 22.48 199.92 55.77 141.59" fill="#f1567b"/><polygon points="55.77 141.59 104.74 172.42 93.38 231.5 22.48 199.92 55.77 141.59" fill="none" stroke="#f1567b" stroke-miterlimit="10" stroke-width="1.98"/></svg>
